kora/mimetypes/scalable/text-x-stylus.svg

<svg clip-rule="evenodd" fill-rule="evenodd" stroke-linejoin="round" stroke-miterlimit="2" viewBox="0 0 48 48" xmlns="http://www.w3.org/2000/svg" xmlns:xlink="http://www.w3.org/1999/xlink"><linearGradient id="a" gradientTransform="matrix(0 -49.619 49.619 0 615.22 51.088)" gradientUnits="userSpaceOnUse" x1="0" x2="1" y1="0" y2="0"><stop offset="0" stop-color="#4b4b4b"/><stop offset="1" stop-color="#767676"/></linearGradient><path d="m54 3.146c0-.926-.751-1.677-1.677-1.677h-34.705c-2.02 0-3.958.803-5.387 2.231-1.428 1.429-2.231 3.367-2.231 5.387v45.295c0 2.02.803 3.958 2.231 5.387 1.429 1.428 3.367 2.231 5.387 2.231h28.764c2.02 0 3.958-.803 5.387-2.231 1.428-1.429 2.231-3.367 2.231-5.387z" fill="url(#a)" transform="matrix(.75 0 0 .75 0 .199125)"/><path d="m15 23v2h13v-2zm4 4v2h13v-2zm4 4v2h9v-2zm0 4v2h9v-2z" fill="#b3d107" fill-opacity=".5" fill-rule="nonzero" transform="matrix(1.13364 0 0 1.13364 -2.6405 -10.0091)"/></svg>

<svg xmlns="http://www.w3.org/2000/svg" width="48" height="48" version="1.1">
 <path style="opacity:0.2" d="m10 5c-1.108 0-2 0.892-2 2v36c0 1.108 0.892 2 2 2h28c1.108 0 2-0.892 2-2v-26l-12-12z"/>
 <path style="fill:#4f4f4f" d="m10 4c-1.108 0-2 0.892-2 2v36c0 1.108 0.892 2 2 2h28c1.108 0 2-0.892 2-2v-26l-10-2-2-10z"/>
 <path style="opacity:0.2" d="m40 17-12-12v10c0 1.108 0.892 2 2 2z"/>
 <path style="fill:#696969" d="m40 16-12-12v10c0 1.108 0.892 2 2 2z"/>
 <path style="fill:#ffffff;opacity:0.1" d="m10 4c-1.108 0-2 0.892-2 2v1c0-1.108 0.892-2 2-2h18v-1h-18z"/>
 <path style="opacity:0.2" d="M 15,24 V 26 H 28 V 24 Z M 19,28 V 30 H 32 V 28 Z M 23,32 V 34 H 32 V 32 Z M 23,36 V 38 H 32 V 36 Z"/>
 <path style="fill:#b3d107" d="M 15,23 V 25 H 28 V 23 Z M 19,27 V 29 H 32 V 27 Z M 23,31 V 33 H 32 V 31 Z M 23,35 V 37 H 32 V 35 Z"/>
</svg>
